X:735
T:An Gaiora
C:Joe Buchanan's Scottish Tome - Page 523.1
I:523 1
Z:Carl Allison
R:Reel
L:1/4
M:4/4
K:G
"Em"(E2 D) | "A7"(E2 G) | "D"(F2 A) | "C"(E2 D) | "G"(G, B,) | "Bm"(D2 B,) | "Bm"D3 |
"Em"(E2 G) | "Bm"(B2 A) | "C"(G E G) | "Em"(E> D B,) | "G"(G,2 A,) | "Em"(B,2 G) | "Bm"(F> E D) | "Em"E3 |
"Em"(E2 G) | "G"(TB2 TB ) | "Bm"(B2 A) | "Am"(A2 E) | "Em"(G2 A) | "Bm"(B2 E) | "Em"(D2 B,) | "Bm"D3 |
"Em"(E2 G) | "Bm"(B2 A) | "C"(G E G) | "Em"(E> D B,) | "G"(G,2 A,) | "Em"(B,2 G) | "Bm"(F> E D) | "Em"E3 |
